logos/lead-dbs.svg

<svg xmlns="http://www.w3.org/2000/svg" width="300" height="212" style="shape-rendering:geometricPrecision;text-rendering:geometricPrecision;image-rendering:optimizeQuality;fill-rule:evenodd;clip-rule:evenodd"><path style="opacity:.969" fill="#7c7c7c" d="M139.5 13.5c11.664 36.254 12.997 72.92 4 110-.172.992.162 1.658 1 2h1c.06.543.393.876 1 1a264.686 264.686 0 0 1 32-5 577.233 577.233 0 0 1 42-1 914.285 914.285 0 0 1 60 6c-.892 29.39-16.058 43.39-45.5 42-12.297.153-24.297-1.513-36-5 7.845 16.795 3.011 28.295-14.5 34.5-6.224 1.061-12.224.394-18-2l-28-20c-11.578-6.021-23.578-10.521-36-13.5 1.478.262 2.811-.071 4-1-1.684-3.112-2.35-6.446-2-10l4-10c2.976-1.179 3.309-2.513 1-4-2.529.429-4.862 1.096-7 2-12.192 2.599-23.192 7.599-33 15a100.08 100.08 0 0 0-30-1c-11.41-.156-18.243-5.822-20.5-17a100.245 100.245 0 0 1 0-20 396.248 396.248 0 0 1 27-53C54.74 52.783 64.24 42.95 74.5 34a356.872 356.872 0 0 0 14-5.5c5.069-7.236 11.735-12.403 20-15.5a191.199 191.199 0 0 1 31 .5z"/><path style="opacity:1" fill="#e5dab8" d="M139.5 13.5c12.815.586 25.148 2.92 37 7-3.452 36.826-14.452 71.16-33 103 8.997-37.08 7.664-73.746-4-110z"/><path style="opacity:1" fill="#fafafa" d="M124.5 18.5v20h12v4h-17v-24h5z"/><path style="opacity:1" fill="#9d9d9d" d="M124.5 18.5c.99 6.145 1.323 12.478 1 19 3.871-.315 7.538.018 11 1h-12v-20z"/><path style="opacity:.994" fill="#719df0" d="M176.5 20.5c17.569 4.51 33.902 11.51 49 21a802.795 802.795 0 0 1-81 84c-.838-.342-1.172-1.008-1-2 18.548-31.84 29.548-66.174 33-103z"/><path style="opacity:1" fill="#93c7bd" d="M225.5 41.5c15.297 9.299 27.963 21.299 38 36a2865.102 2865.102 0 0 1-70 24.5 1604.789 1604.789 0 0 0-48 23.5h-1a802.795 802.795 0 0 0 81-84z"/><path style="opacity:1" fill="#fbfbfb" d="M137.5 55.5v3h-13v6h12v4h-12v6c4.134.985 8.468 1.318 13 1v3h-17v-23h17z"/><path style="opacity:1" fill="#b0b0b0" d="M137.5 58.5c-3.798.983-7.798 1.317-12 1v4c3.871-.315 7.538.018 11 1h-12v-6h13z"/><path style="opacity:1" fill="#d5d5d5" d="M137.5 55.5h-17v23h17v-3c-4.532.318-8.866-.015-13-1h14v5h-19v-25c6.19-.323 12.19.01 18 1z"/><path style="opacity:.999" fill="#d29685" d="M263.5 77.5c11.815 14.107 17.481 30.441 17 49a914.285 914.285 0 0 0-60-6c-5.657-.666-11.49-.999-17.5-1-8.392-.202-16.559.465-24.5 2a264.686 264.686 0 0 0-32 5c-.607-.124-.94-.457-1-1a1604.789 1604.789 0 0 1 48-23.5 2865.102 2865.102 0 0 0 70-24.5z"/><path style="opacity:1" fill="#f3f3f3" d="M127.5 90.5c2.292-.256 4.459.077 6.5 1a920.275 920.275 0 0 1 7.5 23h-6v-4a50.464 50.464 0 0 0-10 .5c-.837 1.011-1.17 2.178-1 3.5h-5a168.88 168.88 0 0 1 8-24z"/><path style="opacity:1" fill="#8c8c8c" d="M129.5 97.5c2.067 1.818 3.4 4.151 4 7a9.86 9.86 0 0 1-6 1 53.76 53.76 0 0 1 2-8z"/><path style="opacity:1" fill="#ac8a80" d="M220.5 120.5a577.233 577.233 0 0 0-42 1c7.941-1.535 16.108-2.202 24.5-2 6.01.001 11.843.334 17.5 1z"/><path style="opacity:1" fill="#f8f8f8" d="M119.5 128.5h16v4h-16v-4z"/><path style="opacity:1" fill="#f4f4f4" d="M186.5 127.5c5.265-.929 9.765.404 13.5 4a8.43 8.43 0 0 1 .5 4c-1.788.285-3.455-.048-5-1-1.588-2.757-3.921-3.59-7-2.5-1.333 1.667-1.333 3.333 0 5a41.746 41.746 0 0 1 12 4.5c2.277 5.609.61 9.443-5 11.5-4.937 1.369-9.104.203-12.5-3.5a8.43 8.43 0 0 1-.5-4c3.458.404 6.625 1.404 9.5 3 3.944.405 5.11-1.095 3.5-4.5a56.087 56.087 0 0 0-10-3c-4.151-4.791-3.818-9.291 1-13.5z"/><path style="opacity:1" fill="#f8f8f8" d="M153.5 128.5a98.432 98.432 0 0 1 14 .5c5.652 2.749 6.318 6.249 2 10.5a11.38 11.38 0 0 0 2.5 2 16.242 16.242 0 0 1 0 8c-1.129 1.641-2.629 2.641-4.5 3h-14v-24z"/><path style="opacity:1" fill="gray" d="M165.5 133.5c2.522 1.502 2.522 2.835 0 4h-7v-4h7z"/><path style="opacity:1" fill="#f7f7f7" d="M119.5 135.5h21c.17 1.322-.163 2.489-1 3.5-6.658.5-13.325.666-20 .5v-4z"/><path style="opacity:1" fill="#a8a8a8" d="M165.5 133.5h-7v4h7c-2.448.973-5.115 1.306-8 1v-6c2.885-.306 5.552.027 8 1z"/><path style="opacity:1" fill="#d48fe1" d="M108.5 141.5c-1.418-1.808-3.418-2.475-6-2 2.138-.904 4.471-1.571 7-2 2.309 1.487 1.976 2.821-1 4z"/><path style="opacity:1" fill="#eb94fb" d="M102.5 139.5c2.582-.475 4.582.192 6 2l-4 10c-.977 2.787-1.31 5.787-1 9h-7c-3.576-2.228-7.576-3.228-12-3a188.197 188.197 0 0 1-15-3c9.808-7.401 20.808-12.401 33-15z"/><path style="opacity:1" fill="#f5f5f5" d="M119.5 142.5h21c.17 1.322-.163 2.489-1 3.5-6.658.5-13.325.666-20 .5v-4z"/><path style="opacity:1" fill="gray" d="M157.5 142.5a40.914 40.914 0 0 1 9 .5c1.333 1.667 1.333 3.333 0 5a40.914 40.914 0 0 1-9 .5v-6z"/><path style="opacity:1" fill="#ececec" d="M120.5 148.5a98.432 98.432 0 0 1 14 .5c.88 1.356 1.214 2.856 1 4.5h-16c-.134-1.792.199-3.458 1-5z"/><path style="opacity:1" fill="#c4c4c4" d="M153.5 128.5v24h14c-4.805.987-9.805 1.321-15 1-.326-8.517.007-16.85 1-25z"/><path style="opacity:1" fill="#d18ede" d="M104.5 151.5c-.35 3.554.316 6.888 2 10-1.189.929-2.522 1.262-4 1-2.198-.375-4.198-1.042-6-2h7c-.31-3.213.023-6.213 1-9z"/><path style="opacity:.206" fill="#c28acd" d="M84.5 157.5c4.424-.228 8.424.772 12 3-4.233-.473-8.233-1.473-12-3z"/></svg>

<?xml version="1.0" encoding="UTF-8"?>
<!DOCTYPE svg PUBLIC "-//W3C//DTD SVG 1.1//EN" "http://www.w3.org/Graphics/SVG/1.1/DTD/svg11.dtd">
<svg xmlns="http://www.w3.org/2000/svg" version="1.1" width="300px" height="212px" style="shape-rendering:geometricPrecision; text-rendering:geometricPrecision; image-rendering:optimizeQuality; fill-rule:evenodd; clip-rule:evenodd" xmlns:xlink="http://www.w3.org/1999/xlink">
<g><path style="opacity:0.969" fill="#7c7c7c" d="M 139.5,13.5 C 151.164,49.7541 152.497,86.4207 143.5,123.5C 143.328,124.492 143.662,125.158 144.5,125.5C 144.833,125.5 145.167,125.5 145.5,125.5C 145.56,126.043 145.893,126.376 146.5,126.5C 157.079,124.178 167.746,122.511 178.5,121.5C 192.482,120.657 206.482,120.324 220.5,120.5C 240.573,121.841 260.573,123.841 280.5,126.5C 279.608,155.89 264.442,169.89 235,168.5C 222.703,168.653 210.703,166.987 199,163.5C 206.845,180.295 202.011,191.795 184.5,198C 178.276,199.061 172.276,198.394 166.5,196C 157.167,189.333 147.833,182.667 138.5,176C 126.922,169.979 114.922,165.479 102.5,162.5C 103.978,162.762 105.311,162.429 106.5,161.5C 104.816,158.388 104.15,155.054 104.5,151.5C 105.833,148.167 107.167,144.833 108.5,141.5C 111.476,140.321 111.809,138.987 109.5,137.5C 106.971,137.929 104.638,138.596 102.5,139.5C 90.3083,142.099 79.3083,147.099 69.5,154.5C 59.5401,152.658 49.5401,152.325 39.5,153.5C 28.0904,153.344 21.2571,147.678 19,136.5C 18.3333,129.833 18.3333,123.167 19,116.5C 26.6561,98.1884 35.6561,80.5217 46,63.5C 54.7394,52.7831 64.2394,42.9497 74.5,34C 79.2062,32.2647 83.8729,30.4313 88.5,28.5C 93.5685,21.2641 100.235,16.0974 108.5,13C 118.852,12.3276 129.186,12.4942 139.5,13.5 Z"/></g>
<g><path style="opacity:1" fill="#e5dab8" d="M 139.5,13.5 C 152.315,14.0859 164.648,16.4192 176.5,20.5C 173.048,57.3264 162.048,91.6598 143.5,123.5C 152.497,86.4207 151.164,49.7541 139.5,13.5 Z"/></g>
<g><path style="opacity:1" fill="#fafafa" d="M 124.5,18.5 C 124.5,25.1667 124.5,31.8333 124.5,38.5C 128.5,38.5 132.5,38.5 136.5,38.5C 136.5,39.8333 136.5,41.1667 136.5,42.5C 130.833,42.5 125.167,42.5 119.5,42.5C 119.5,34.5 119.5,26.5 119.5,18.5C 121.167,18.5 122.833,18.5 124.5,18.5 Z"/></g>
<g><path style="opacity:1" fill="#9d9d9d" d="M 124.5,18.5 C 125.49,24.6446 125.823,30.9779 125.5,37.5C 129.371,37.185 133.038,37.5184 136.5,38.5C 132.5,38.5 128.5,38.5 124.5,38.5C 124.5,31.8333 124.5,25.1667 124.5,18.5 Z"/></g>
<g><path style="opacity:0.994" fill="#719df0" d="M 176.5,20.5 C 194.069,25.0095 210.402,32.0095 225.5,41.5C 200.573,71.4283 173.573,99.4283 144.5,125.5C 143.662,125.158 143.328,124.492 143.5,123.5C 162.048,91.6598 173.048,57.3264 176.5,20.5 Z"/></g>
<g><path style="opacity:1" fill="#93c7bd" d="M 225.5,41.5 C 240.797,50.7987 253.463,62.7987 263.5,77.5C 240.389,85.928 217.055,94.0946 193.5,102C 177.289,109.606 161.289,117.44 145.5,125.5C 145.167,125.5 144.833,125.5 144.5,125.5C 173.573,99.4283 200.573,71.4283 225.5,41.5 Z"/></g>
<g><path style="opacity:1" fill="#fbfbfb" d="M 137.5,55.5 C 137.5,56.5 137.5,57.5 137.5,58.5C 133.167,58.5 128.833,58.5 124.5,58.5C 124.5,60.5 124.5,62.5 124.5,64.5C 128.5,64.5 132.5,64.5 136.5,64.5C 136.5,65.8333 136.5,67.1667 136.5,68.5C 132.5,68.5 128.5,68.5 124.5,68.5C 124.5,70.5 124.5,72.5 124.5,74.5C 128.634,75.4849 132.968,75.8182 137.5,75.5C 137.5,76.5 137.5,77.5 137.5,78.5C 131.833,78.5 126.167,78.5 120.5,78.5C 120.5,70.8333 120.5,63.1667 120.5,55.5C 126.167,55.5 131.833,55.5 137.5,55.5 Z"/></g>
<g><path style="opacity:1" fill="#b0b0b0" d="M 137.5,58.5 C 133.702,59.4834 129.702,59.8168 125.5,59.5C 125.5,60.8333 125.5,62.1667 125.5,63.5C 129.371,63.185 133.038,63.5184 136.5,64.5C 132.5,64.5 128.5,64.5 124.5,64.5C 124.5,62.5 124.5,60.5 124.5,58.5C 128.833,58.5 133.167,58.5 137.5,58.5 Z"/></g>
<g><path style="opacity:1" fill="#d5d5d5" d="M 137.5,55.5 C 131.833,55.5 126.167,55.5 120.5,55.5C 120.5,63.1667 120.5,70.8333 120.5,78.5C 126.167,78.5 131.833,78.5 137.5,78.5C 137.5,77.5 137.5,76.5 137.5,75.5C 132.968,75.8182 128.634,75.4849 124.5,74.5C 129.167,74.5 133.833,74.5 138.5,74.5C 138.5,76.1667 138.5,77.8333 138.5,79.5C 132.167,79.5 125.833,79.5 119.5,79.5C 119.5,71.1667 119.5,62.8333 119.5,54.5C 125.69,54.1771 131.69,54.5104 137.5,55.5 Z"/></g>
<g><path style="opacity:0.999" fill="#d29685" d="M 263.5,77.5 C 275.315,91.6073 280.981,107.941 280.5,126.5C 260.573,123.841 240.573,121.841 220.5,120.5C 214.843,119.834 209.01,119.501 203,119.5C 194.608,119.298 186.441,119.965 178.5,121.5C 167.746,122.511 157.079,124.178 146.5,126.5C 145.893,126.376 145.56,126.043 145.5,125.5C 161.289,117.44 177.289,109.606 193.5,102C 217.055,94.0946 240.389,85.928 263.5,77.5 Z"/></g>
<g><path style="opacity:1" fill="#f3f3f3" d="M 127.5,90.5 C 129.792,90.2436 131.959,90.5769 134,91.5C 136.611,99.165 139.111,106.832 141.5,114.5C 139.5,114.5 137.5,114.5 135.5,114.5C 135.5,113.167 135.5,111.833 135.5,110.5C 132.15,110.335 128.817,110.502 125.5,111C 124.663,112.011 124.33,113.178 124.5,114.5C 122.833,114.5 121.167,114.5 119.5,114.5C 121.566,106.303 124.232,98.3027 127.5,90.5 Z"/></g>
<g><path style="opacity:1" fill="#8c8c8c" d="M 129.5,97.5 C 131.567,99.3177 132.9,101.651 133.5,104.5C 131.604,105.466 129.604,105.799 127.5,105.5C 127.963,102.779 128.629,100.112 129.5,97.5 Z"/></g>
<g><path style="opacity:1" fill="#ac8a80" d="M 220.5,120.5 C 206.482,120.324 192.482,120.657 178.5,121.5C 186.441,119.965 194.608,119.298 203,119.5C 209.01,119.501 214.843,119.834 220.5,120.5 Z"/></g>
<g><path style="opacity:1" fill="#f8f8f8" d="M 119.5,128.5 C 124.833,128.5 130.167,128.5 135.5,128.5C 135.5,129.833 135.5,131.167 135.5,132.5C 130.167,132.5 124.833,132.5 119.5,132.5C 119.5,131.167 119.5,129.833 119.5,128.5 Z"/></g>
<g><path style="opacity:1" fill="#f4f4f4" d="M 186.5,127.5 C 191.765,126.571 196.265,127.904 200,131.5C 200.49,132.793 200.657,134.127 200.5,135.5C 198.712,135.785 197.045,135.452 195.5,134.5C 193.912,131.743 191.579,130.91 188.5,132C 187.167,133.667 187.167,135.333 188.5,137C 192.768,137.896 196.768,139.396 200.5,141.5C 202.777,147.109 201.11,150.943 195.5,153C 190.563,154.369 186.396,153.203 183,149.5C 182.51,148.207 182.343,146.873 182.5,145.5C 185.958,145.904 189.125,146.904 192,148.5C 195.944,148.905 197.11,147.405 195.5,144C 192.27,142.692 188.936,141.692 185.5,141C 181.349,136.209 181.682,131.709 186.5,127.5 Z"/></g>
<g><path style="opacity:1" fill="#f8f8f8" d="M 153.5,128.5 C 158.179,128.334 162.845,128.501 167.5,129C 173.152,131.749 173.818,135.249 169.5,139.5C 170.242,140.287 171.075,140.953 172,141.5C 172.667,144.167 172.667,146.833 172,149.5C 170.871,151.141 169.371,152.141 167.5,152.5C 162.833,152.5 158.167,152.5 153.5,152.5C 153.5,144.5 153.5,136.5 153.5,128.5 Z"/></g>
<g><path style="opacity:1" fill="#808080" d="M 165.5,133.5 C 168.022,135.002 168.022,136.335 165.5,137.5C 163.167,137.5 160.833,137.5 158.5,137.5C 158.5,136.167 158.5,134.833 158.5,133.5C 160.833,133.5 163.167,133.5 165.5,133.5 Z"/></g>
<g><path style="opacity:1" fill="#f7f7f7" d="M 119.5,135.5 C 126.5,135.5 133.5,135.5 140.5,135.5C 140.67,136.822 140.337,137.989 139.5,139C 132.842,139.5 126.175,139.666 119.5,139.5C 119.5,138.167 119.5,136.833 119.5,135.5 Z"/></g>
<g><path style="opacity:1" fill="#a8a8a8" d="M 165.5,133.5 C 163.167,133.5 160.833,133.5 158.5,133.5C 158.5,134.833 158.5,136.167 158.5,137.5C 160.833,137.5 163.167,137.5 165.5,137.5C 163.052,138.473 160.385,138.806 157.5,138.5C 157.5,136.5 157.5,134.5 157.5,132.5C 160.385,132.194 163.052,132.527 165.5,133.5 Z"/></g>
<g><path style="opacity:1" fill="#d48fe1" d="M 108.5,141.5 C 107.082,139.692 105.082,139.025 102.5,139.5C 104.638,138.596 106.971,137.929 109.5,137.5C 111.809,138.987 111.476,140.321 108.5,141.5 Z"/></g>
<g><path style="opacity:1" fill="#eb94fb" d="M 102.5,139.5 C 105.082,139.025 107.082,139.692 108.5,141.5C 107.167,144.833 105.833,148.167 104.5,151.5C 103.523,154.287 103.19,157.287 103.5,160.5C 101.167,160.5 98.8333,160.5 96.5,160.5C 92.924,158.272 88.924,157.272 84.5,157.5C 79.4379,156.699 74.4379,155.699 69.5,154.5C 79.3083,147.099 90.3083,142.099 102.5,139.5 Z"/></g>
<g><path style="opacity:1" fill="#f5f5f5" d="M 119.5,142.5 C 126.5,142.5 133.5,142.5 140.5,142.5C 140.67,143.822 140.337,144.989 139.5,146C 132.842,146.5 126.175,146.666 119.5,146.5C 119.5,145.167 119.5,143.833 119.5,142.5 Z"/></g>
<g><path style="opacity:1" fill="#808080" d="M 157.5,142.5 C 160.518,142.335 163.518,142.502 166.5,143C 167.833,144.667 167.833,146.333 166.5,148C 163.518,148.498 160.518,148.665 157.5,148.5C 157.5,146.5 157.5,144.5 157.5,142.5 Z"/></g>
<g><path style="opacity:1" fill="#ececec" d="M 120.5,148.5 C 125.179,148.334 129.845,148.501 134.5,149C 135.38,150.356 135.714,151.856 135.5,153.5C 130.167,153.5 124.833,153.5 119.5,153.5C 119.366,151.708 119.699,150.042 120.5,148.5 Z"/></g>
<g><path style="opacity:1" fill="#c4c4c4" d="M 153.5,128.5 C 153.5,136.5 153.5,144.5 153.5,152.5C 158.167,152.5 162.833,152.5 167.5,152.5C 162.695,153.487 157.695,153.821 152.5,153.5C 152.174,144.983 152.507,136.65 153.5,128.5 Z"/></g>
<g><path style="opacity:1" fill="#d18ede" d="M 104.5,151.5 C 104.15,155.054 104.816,158.388 106.5,161.5C 105.311,162.429 103.978,162.762 102.5,162.5C 100.302,162.125 98.3024,161.458 96.5,160.5C 98.8333,160.5 101.167,160.5 103.5,160.5C 103.19,157.287 103.523,154.287 104.5,151.5 Z"/></g>
<g><path style="opacity:0.206" fill="#c28acd" d="M 84.5,157.5 C 88.924,157.272 92.924,158.272 96.5,160.5C 92.2669,160.027 88.2669,159.027 84.5,157.5 Z"/></g>
</svg>
